projects/packages/backup/src/js/components/icons/autorenew.svg

<svg fill="none" height="32" viewBox="0 0 33 32" width="33" xmlns="http://www.w3.org/2000/svg" xmlns:xlink="http://www.w3.org/1999/xlink"><mask id="a" height="20" maskUnits="userSpaceOnUse" width="15" x="9" y="6"><path clip-rule="evenodd" d="m16.5002 13.5002v-2.5c-2.7584 0-5 2.2416-5 5 0 .8416.2083 1.6416.5833 2.3333l-1.2167 1.2167c-.65-1.025-1.0333-2.2417-1.0333-3.55 0-3.6834 2.9833-6.6667 6.6667-6.6667v-2.5l3.3333 3.3333zm4.4166.1666 1.2167-1.2166c.65 1.025 1.0333 2.2416 1.0333 3.55 0 3.6833-2.9833 6.6666-6.6666 6.6666v2.5l-3.3334-3.3333 3.3334-3.3333v2.5c2.7583 0 5-2.2417 5-5 0-.8417-.2167-1.6334-.5834-2.3334z" fill="#fff" fill-rule="evenodd"/></mask><rect fill="#008710" height="32" rx="4" width="32" x=".5"/><g mask="url(#a)"><path d="m6.5 6h20v20h-20z" fill="#fff"/></g></svg>

<svg width="33" height="32" viewBox="0 0 33 32" fill="none" xmlns="http://www.w3.org/2000/svg">
<rect x="0.5" width="32" height="32" rx="4" fill="#008710"/>
<mask id="mask0_3026_4949" style="mask-type:luminance" maskUnits="userSpaceOnUse" x="9" y="6" width="15" height="20">
<path fill-rule="evenodd" clip-rule="evenodd" d="M16.5002 13.5002V11.0002C13.7418 11.0002 11.5002 13.2418 11.5002 16.0002C11.5002 16.8418 11.7085 17.6418 12.0835 18.3335L10.8668 19.5502C10.2168 18.5252 9.8335 17.3085 9.8335 16.0002C9.8335 12.3168 12.8168 9.3335 16.5002 9.3335V6.8335L19.8335 10.1668L16.5002 13.5002ZM20.9168 13.6668L22.1335 12.4502C22.7835 13.4752 23.1668 14.6918 23.1668 16.0002C23.1668 19.6835 20.1835 22.6668 16.5002 22.6668V25.1668L13.1668 21.8335L16.5002 18.5002V21.0002C19.2585 21.0002 21.5002 18.7585 21.5002 16.0002C21.5002 15.1585 21.2835 14.3668 20.9168 13.6668Z" fill="white"/>
</mask>
<g mask="url(#mask0_3026_4949)">
<rect x="6.5" y="6" width="20" height="20" fill="white"/>
</g>
</svg>
